X:46
%%etbk:tnset id:16,pos:1,rep:3x,ant:
%%etbk:wsite http://www.thesession.org/tunes/display/566
%%etbk:pldat 2014-09-25T18:15,2013-05-01T17:20
T: Red Haired Boy, The
Z: Piano Box Version by Martin Fleischmann
H: Created 2013-02-19 /  Last Modified 2013-02-19
M: 4/4
L: 1/8
R: reel
K: Amix
|:"A"!1!E2!3!A2 !1!ABc!4!d | !3!efe!2!c "D"!3!d2 cd | "A"!4!e2!1!A2 !3!ABcA| "E"!4!B!2!=G!1!E!2!F !3!G3 F |
"A"!1!E2!3!A2 !1!ABc!4!d | !3!efe!2!c "D"!3!d2 !2!c!3!d | "A"!2!e2!5!ag age!1!d | !3!c2!1!A2 A4 :|
|: "G"!4!gf!2!ef gfef | !4!gf!1!e!2!c "D"!3!d2 cd | "A"!4!e2!1!A2 !3!ABcA| "E"!4!B!2!=G!1!E!2!F !3!G3 F |
"A"!1!E2!3!A2 !1!ABc!4!d | !3!efe!2!c "D"!3!d2 !2!c!3!d | "A"!2!e2!5!ag age!1!d | !3!c2!1!A2 A4:|


